X: 2809
T: Bantry Lasses, The
R: reel
M: 4/4
K: Dmajor
|:~F3E DF~F2|G2FG EGAG|~F3E D2Ad|cAGE EDD2|
~F3E DF~F2|G2FG EGAG|~F3E D2Ad|cAGE EDD2:|
|:Addc d3A|(3Bcd ef gfed|Addc deed|cAGE EDD2|
Addc d3A|(3Bcd ef gfge|fgfd efed|cAGE EDD2:|

